dist/svgs/unicons/line/compress-alt-left.svg

<svg xmlns="http://www.w3.org/2000/svg" viewBox="0 0 24 24"><path d="M10.5 5.5a1 1 0 00-1 1v1.59l-5.79-5.8a1 1 0 00-1.42 1.42l5.8 5.79H6.5a1 1 0 000 2h4a1 1 0 00.38-.08 1 1 0 00.54-.54 1 1 0 00.08-.38v-4a1 1 0 00-1-1zm11.21 14.79l-5.8-5.79h1.59a1 1 0 000-2h-4a1 1 0 00-.38.08 1 1 0 00-.54.54 1 1 0 00-.08.38v4a1 1 0 002 0v-1.59l5.79 5.8a1 1 0 001.42 0 1 1 0 000-1.42z"/></svg>

<svg xmlns="http://www.w3.org/2000/svg" viewBox="0 0 24 24"><path d="M10.5,5.5a1,1,0,0,0-1,1V8.09L3.71,2.29A1,1,0,0,0,2.29,3.71L8.09,9.5H6.5a1,1,0,0,0,0,2h4a1,1,0,0,0,.38-.08,1,1,0,0,0,.54-.54,1,1,0,0,0,.08-.38v-4A1,1,0,0,0,10.5,5.5ZM21.71,20.29l-5.8-5.79H17.5a1,1,0,0,0,0-2h-4a1,1,0,0,0-.38.08,1,1,0,0,0-.54.54,1,1,0,0,0-.08.38v4a1,1,0,0,0,2,0V15.91l5.79,5.8a1,1,0,0,0,1.42,0A1,1,0,0,0,21.71,20.29Z"/></svg>
